src/assets/duotone/MonitorRecorder.svg

<svg width="24" height="24" viewBox="0 0 24 24"  xmlns="http://www.w3.org/2000/svg">
<path opacity="0.4" d="M20.97 7.19V13.37H2V7.19C2 4.88 3.88 3 6.19 3H16.78C19.09 3 20.97 4.88 20.97 7.19Z" />
<path d="M2 13.3701V13.5601C2 15.8801 3.88 17.7501 6.19 17.7501H9.79C10.34 17.7501 10.79 18.2001 10.79 18.7501V19.5701C10.79 20.1201 10.34 20.5701 9.79 20.5701H7.53C7.14 20.5701 6.82 20.8901 6.82 21.2801C6.82 21.6701 7.14 21.9901 7.53 21.9901H15.46C15.85 21.9901 16.17 21.6701 16.17 21.2801C16.17 20.8901 15.85 20.5701 15.46 20.5701H13.21C12.66 20.5701 12.21 20.1201 12.21 19.5701V18.7501C12.21 18.2001 12.66 17.7501 13.21 17.7501H16.78C19.1 17.7501 20.97 15.8701 20.97 13.5601V13.3701H2Z" />
<path d="M21.99 2.35962L20.86 3.14962V2.72962C20.86 1.77962 20.09 1.01962 19.15 1.01962H14.87C13.84 1.00962 13 1.84962 13 2.87962V6.15962C13 7.01962 13.43 7.86962 14.71 7.86962H19.14C20.09 7.86962 20.85 7.09962 20.85 6.15962V5.72962L21.98 6.51962C22.55 6.90962 23 6.66962 23 5.98962V2.88962C23 2.20962 22.55 1.97962 21.99 2.35962Z" />
</svg>

<?xml version="1.0" encoding="UTF-8"?>
<svg width="24" height="24" viewBox="0 0 24 24" xmlns="http://www.w3.org/2000/svg">
 <path d="M20.97 7.19V13.37H2V7.19C2 4.88 3.88 3 6.19 3H16.78C19.09 3 20.97 4.88 20.97 7.19Z" opacity=".4"/>
 <path d="m2 13.37v0.19c0 2.32 1.88 4.19 4.19 4.19h3.6c0.55 0 1 0.45 1 1v0.82c0 0.55-0.45 1-1 1h-2.26c-0.39 0-0.71 0.32-0.71 0.71s0.32 0.71 0.71 0.71h7.93c0.39 0 0.71-0.32 0.71-0.71s-0.32-0.71-0.71-0.71h-2.25c-0.55 0-1-0.45-1-1v-0.82c0-0.55 0.45-1 1-1h3.57c2.32 0 4.19-1.88 4.19-4.19v-0.19h-18.97z"/>
 <path d="m21.99 2.3596-1.13 0.79v-0.42c0-0.95-0.77-1.71-1.71-1.71h-4.28c-1.03-0.01-1.87 0.83-1.87 1.86v3.28c0 0.86 0.43 1.71 1.71 1.71h4.43c0.95 0 1.71-0.77 1.71-1.71v-0.43l1.13 0.79c0.57 0.39 1.02 0.15 1.02-0.53v-3.1c0-0.68-0.45-0.91-1.01-0.53z"/>
</svg>
